icon/fa/square-xmark.svg

<svg xmlns="http://www.w3.org/2000/svg" viewBox="0 0 448 512"><!--! Font Awesome Free 6.1.2 by @fontawesome - https://fontawesome.com License - https://fontawesome.com/license/free (Icons: CC BY 4.0, Fonts: SIL OFL 1.1, Code: MIT License) Copyright 2022 Fonticons, Inc.--><path d="M384 32c35.3 0 64 28.65 64 64v320c0 35.3-28.7 64-64 64H64c-35.35 0-64-28.7-64-64V96c0-35.35 28.65-64 64-64h320zM143 208.1l47.1 47L143 303c-9.3 9.4-9.3 24.6 0 33.1 9.4 10.2 24.6 10.2 33.1 0l47-46.2 47.9 46.2c9.4 10.2 24.6 10.2 33.1 0 10.2-8.5 10.2-23.7 0-33.1l-46.2-47.9 46.2-47c10.2-8.5 10.2-23.7 0-33.1-8.5-9.3-23.7-9.3-33.1 0l-47.9 47.1-47-47.1c-8.5-9.3-23.7-9.3-33.1 0-9.3 9.4-9.3 24.6 0 33.1z"/></svg>

<svg xmlns="http://www.w3.org/2000/svg" viewBox="0 0 448 512" height="1em" width="1em">
<!--! Font Awesome Free 6.1.2 by @fontawesome - https://fontawesome.com License - https://fontawesome.com/license/free (Icons: CC BY 4.0, Fonts: SIL OFL 1.1, Code: MIT License) Copyright 2022 Fonticons, Inc.-->
  <path d="M384 32C419.3 32 448 60.65 448 96V416C448 451.3 419.3 480 384 480H64C28.65 480 0 451.3 0 416V96C0 60.65 28.65 32 64 32H384zM143 208.1L190.1 255.1L143 303C133.7 312.4 133.7 327.6 143 336.1C152.4 346.3 167.6 346.3 176.1 336.1L223.1 289.9L271 336.1C280.4 346.3 295.6 346.3 304.1 336.1C314.3 327.6 314.3 312.4 304.1 303L257.9 255.1L304.1 208.1C314.3 199.6 314.3 184.4 304.1 175C295.6 165.7 280.4 165.7 271 175L223.1 222.1L176.1 175C167.6 165.7 152.4 165.7 143 175C133.7 184.4 133.7 199.6 143 208.1V208.1z"/>
</svg>
